X:1566
T:Doctor O'Neill
O:england
R:jig
M:6/8
L:1/8
K:D
A|dcd AFD|E2F G2A|~B3 Bcd|AGF EFA|
dcd AFD|E2F G2A|~B3 Bcd|AFD D2:|
A|dcd ceA|dfe dcB|AFA Bcd|AGF E2A|
dcd ceA|dfe dcB|AFA Bcd|AFD D2:|
g|fef afd|dcd fed|~g3 faf|gee e2g|
fef afd|dcd fed|~g3 fag|fdd d2:|
g|fdf ece|dcB AFd|AFd AFd|AGF E2g|
fdf ece|dcB AFA|~B3 Bcd|AFD D2:|
E|~F3 ~G3|FAF FED|FEF GFG|AFD E2D|
~F3 ~G3|FAF FED|~B3 Bcd|AFD D2:|


